icons/1_Primary/La Poste.svg

<svg xmlns="http://www.w3.org/2000/svg" viewBox="0 0 1024 1024">
   <circle cx="512" cy="512" r="512" style="fill:#e6af32"/>
   <path d="M589.47 275.9c-24.76.19-50.72 2.8-77.47 8.06-171.21 33.67-310 163.07-310 289.01s138.79 200.76 310 167.08c171.21-33.67 310-162.95 310-288.99 0-106.35-98.81-176.17-232.53-175.16Zm-8.05 9.98c130.39-1.76 225.53 66.59 220.98 168.75-4.94 111.44-143.99 239.55-296.52 269.57-164 32.27-295.15-36.77-295.15-156.09S343.14 327.59 505.76 294.3c26.15-5.36 51.51-8.09 75.65-8.42h.01Zm-200.46 131c-1.98 0-6.99-.35-7.88 3.75-.25 1.37.15 2.78 1.1 3.8 1.67 1.46 3.65 2.52 5.78 3.12 13.78 4.97 58.55 20.68 83.48 37.61l2.33 1.68 186.09-2.92c.33-.44 7.18-12.5 11.22-20.26 4.45-8.54 4.66-15.84-.3-20.69-5.48-5.27-14.34-6.11-32.25-6.11H380.97Zm373.2 57.39c-4.13 0-276.58 4.29-280.81 4.45-2.33 0-2.94.61-2.94 3.05 0 19.77-26.28 38.75-61.89 55.75-37.57 17.91-84.72 35.75-109.25 44.78-5.83 2.14-16.32 5.85-19.68 7.56-2.68 1.37-4.66 3.5-3.71 5.94.96 2.45 3.59 3.71 12.9 1.24 4.17-1.1 8.86-2.33 13.99-3.59 47.06-12.24 133.27-33.84 217.22-54.8 86.93-21.71 172.57-40.48 235.53-51.81 4.94-.88 9-3.55 8.79-7.3-.21-3.75-4.31-5.43-10.14-5.27Zm-142.69 54.8-287.22 70.59 205.93-3.57s12.24.32 21.17-5.04c14.39-8.63 33.3-24.3 60.12-61.98Z" style="fill:#fff"/>
</svg>

<svg width="1024" height="1024" viewBox="0 0 1024 1024" fill="none" xmlns="http://www.w3.org/2000/svg">
<g clip-path="url(#clip0_2_2646)">
<path d="M512 1024C794.77 1024 1024 794.77 1024 512C1024 229.23 794.77 0 512 0C229.23 0 0 229.23 0 512C0 794.77 229.23 1024 512 1024Z" fill="#F9DE81"/>
<path d="M589.47 275.9C564.71 276.09 538.75 278.7 512 283.96C340.79 317.63 202 447.03 202 572.97C202 698.91 340.79 773.73 512 740.05C683.21 706.38 822 577.1 822 451.06C822 344.71 723.19 274.89 589.47 275.9ZM581.42 285.88C711.81 284.12 806.95 352.47 802.4 454.63C797.46 566.07 658.41 694.18 505.88 724.2C341.88 756.47 210.73 687.43 210.73 568.11C210.73 448.79 343.14 327.59 505.76 294.3C531.91 288.94 557.27 286.21 581.41 285.88H581.42ZM380.96 416.88C378.98 416.88 373.97 416.53 373.08 420.63C372.83 422 373.23 423.41 374.18 424.43C375.85 425.89 377.83 426.95 379.96 427.55C393.74 432.52 438.51 448.23 463.44 465.16L465.77 466.84L651.86 463.92C652.19 463.48 659.04 451.42 663.08 443.66C667.53 435.12 667.74 427.82 662.78 422.97C657.3 417.7 648.44 416.86 630.53 416.86H380.97L380.96 416.88ZM754.16 474.27C750.03 474.27 477.58 478.56 473.35 478.72C471.02 478.72 470.41 479.33 470.41 481.77C470.41 501.54 444.13 520.52 408.52 537.52C370.95 555.43 323.8 573.27 299.27 582.3C293.44 584.44 282.95 588.15 279.59 589.86C276.91 591.23 274.93 593.36 275.88 595.8C276.84 598.25 279.47 599.51 288.78 597.04C292.95 595.94 297.64 594.71 302.77 593.45C349.83 581.21 436.04 559.61 519.99 538.65C606.92 516.94 692.56 498.17 755.52 486.84C760.46 485.96 764.52 483.29 764.31 479.54C764.1 475.79 760 474.11 754.17 474.27H754.16ZM611.47 529.07L324.25 599.66L530.18 596.09C530.18 596.09 542.42 596.41 551.35 591.05C565.74 582.42 584.65 566.75 611.47 529.07Z" fill="white"/>
</g>
<defs>
<clipPath id="clip0_2_2646">
<rect width="1024" height="1024" fill="white"/>
</clipPath>
</defs>
</svg>
